**harm	**harte	**silbe	**silbe	**rhyme	**timestamp	**phrase	**leadinstrument	**kern
*M4/4	*M4/4	*	*	*	*	*	*	*
*	*	*	*	*	*	*	*	*
*	*	*	*	*	*	*	*	*
*G:	*G:	*	*	*	*	*	*	*G:
*	*	*	*	*	*	*	*	*
*	*	*	*	*	*	*	*	*
1r;	N	.	.	.	0	.	r	1r;
=1	=1	=1	=1	=1	=1	=1	=1	=1
*>Letter>A	*>Letter>A	*>Letter>A	*>Letter>A	*>Letter>A	*>Letter>A	*>Letter>A	*>Letter>A	*>Letter>A
*>Label>Intro	*>Label>Intro	*>Label>Intro	*>Label>Intro	*>Label>Intro	*>Label>Intro	*>Label>Intro	*>Label>Intro	*>Label>Intro
2I7	G:maj13	.	.	.	0.302	newline	brass	1G 1b 1dd 1ff#
2v7	D:min9	.	.	.	1.281	.	brass	2D 2f 2a 2cc
=2	=2	=2	=2	=2	=2	=2	=2	=2
2I7	G:maj13	.	.	.	2.26	.	brass	1G 1b 1dd 1ff#
2-VI7	E-:maj13	.	.	.	3.239	.	brass	2E- 2g 2b- 2dd
=3	=3	=3	=3	=3	=3	=3	=3	=3
1III7	B:sus4(b7,9)	.	.	.	4.218	.	brass	1B 1dd# 1ff# 1aa
=4	=4	=4	=4	=4	=4	=4	=4	=4
2-III7	B-:maj13	.	.	.	6.177	newline	brass	1B- 1dd 1ff 1aa
2-IIm7	A-:13	.	.	.	7.195	.	brass	2A- 2cc 2ee- 2gg
=5	=5	=5	=5	=5	=5	=5	=5	=5
2-VII7f	F:maj9/4	.	.	.	8.214	.	brass	1F 1a 1cc 1ee
2I7	G:maj13	.	.	.	9.232	.	brass	2G 2b 2dd 2ff#
=6	=6	=6	=6	=6	=6	=6	=6	=6
1VII7	F#:sus4(b7,9)	.	.	.	10.251	.	brass	1F# 1a# 1cc# 1ee
=7	=7	=7	=7	=7	=7	=7	=7	=7
*>Letter>B	*>Letter>B	*>Letter>B	*>Letter>B	*>Letter>B	*>Letter>B	*>Letter>B	*>Letter>B	*>Letter>B
*>Label>Intro	*>Label>Intro	*>Label>Intro	*>Label>Intro	*>Label>Intro	*>Label>Intro	*>Label>Intro	*>Label>Intro	*>Label>Intro
*M5/8	*M5/8	*	*	*	*M5/8	*M5/8	*M5/8	*
8%5-VII	F:maj	.	.	.	12.288	newline	piano	3...F 3...a 3...cc
.	F:maj	.	.	.	.	.	.	.
=8	=8	=8	=8	=8	=8	=8	=8	=8
8%5I	G:maj	.	.	.	13.599	.	piano	3...G 3...b 3...dd
.	G:maj	.	.	.	.	.	.	.
=9	=9	=9	=9	=9	=9	=9	=9	=9
8%5-VII	F:maj	.	.	.	14.91	.	piano	3...F 3...a 3...cc
.	F:maj	.	.	.	.	.	.	.
=10	=10	=10	=10	=10	=10	=10	=10	=10
8%5I	G:maj	.	.	.	16.22	.	piano	3...G 3...b 3...dd
.	G:maj	.	.	.	.	.	.	.
=11	=11	=11	=11	=11	=11	=11	=11	=11
8%5-VII	F:maj	.	.	.	17.531	newline	piano	3...F 3...a 3...cc
.	F:maj	.	.	.	.	.	.	.
=12	=12	=12	=12	=12	=12	=12	=12	=12
8%5I	G:maj	.	.	.	18.895	.	piano	3...G 3...b 3...dd
.	G:maj	.	.	.	.	.	.	.
=13	=13	=13	=13	=13	=13	=13	=13	=13
*M3/8	*M3/8	*	*	*	*M3/8	*M3/8	*M3/8	*
4.-VI	E-:maj(b9)	.	.	.	20.259	.	piano	4.E- 4.g 4.b-
=14	=14	=14	=14	=14	=14	=14	=14	=14
4.-VI	E-:maj(b9)	.	.	.	21.078	.	piano	4.E- 4.g 4.b-
=15	=15	=15	=15	=15	=15	=15	=15	=15
4.-VI7	E-:maj7(#11)	.	.	.	21.896	newline	brass	4.E- 4.g 4.b- 4.dd
=16	=16	=16	=16	=16	=16	=16	=16	=16
4.-VI7	E-:maj7(#11)	.	.	.	22.754	.	brass	4.E- 4.g 4.b- 4.dd
=17	=17	=17	=17	=17	=17	=17	=17	=17
*M4/4	*M4/4	*	*	*	*M4/4	*M4/4	*M4/4	*
1-VI7	E-:maj7(#11)	.	.	.	23.611	.	brass	1E- 1g 1b- 1dd
=18	=18	=18	=18	=18	=18	=18	=18	=18
*>Letter>C	*>Letter>C	*>Letter>C	*>Letter>C	*>Letter>C	*>Letter>C	*>Letter>C	*>Letter>C	*>Letter>C
*>Label>Instrumental	*>Label>Instrumental	*>Label>Instrumental	*>Label>Instrumental	*>Label>Instrumental	*>Label>Instrumental	*>Label>Instrumental	*>Label>Instrumental	*>Label>Instrumental
1I7	G:maj7	.	.	.	25.898	newline	brass	1G 1b 1dd 1ff#
=19	=19	=19	=19	=19	=19	=19	=19	=19
1IV7	C:maj13	.	.	.	27.936	.	brass	1C 1e 1g 1b
=20	=20	=20	=20	=20	=20	=20	=20	=20
1I7	G:maj7	.	.	.	29.974	.	brass	1G 1b 1dd 1ff#
=21	=21	=21	=21	=21	=21	=21	=21	=21
1IV7	C:maj13	.	.	.	32.012	.	brass	1C 1e 1g 1b
=22	=22	=22	=22	=22	=22	=22	=22	=22
1I7	G:maj7	.	.	.	34.05	newline	brass	1G 1b 1dd 1ff#
=23	=23	=23	=23	=23	=23	=23	=23	=23
1IV7	C:maj13	.	.	.	36.06	.	brass	1C 1e 1g 1b
=24	=24	=24	=24	=24	=24	=24	=24	=24
1I7	G:maj7	.	.	.	38.069	.	brass	1G 1b 1dd 1ff#
=25	=25	=25	=25	=25	=25	=25	=25	=25
1IV7	C:maj13	.	.	.	40.079	.	brass	1C 1e 1g 1b
=26	=26	=26	=26	=26	=26	=26	=26	=26
*>Letter>D	*>Letter>D	*>Letter>D	*>Letter>D	*>Letter>D	*>Letter>D	*>Letter>D	*>Letter>D	*>Letter>D
*>Label>Bridge	*>Label>Bridge	*>Label>Bridge	*>Label>Bridge	*>Label>Bridge	*>Label>Bridge	*>Label>Bridge	*>Label>Bridge	*>Label>Bridge
2V	D:maj	.	.	.	42.089	newline	brass	1D 1f# 1a
2vi7	E:min7	.	.	.	43.127	.	brass	2E 2g 2b 2dd
=27	=27	=27	=27	=27	=27	=27	=27	=27
2-VII	F:maj6	.	.	.	44.165	.	brass	1F 1a 1cc
2vi7	E:min7	.	.	.	45.202	.	brass	2E 2g 2b 2dd
=28	=28	=28	=28	=28	=28	=28	=28	=28
*>Letter>E	*>Letter>E	*>Letter>E	*>Letter>E	*>Letter>E	*>Letter>E	*>Letter>E	*>Letter>E	*>Letter>E
*>Label>Verse	*>Label>Verse	*>Label>Verse	*>Label>Verse	*>Label>Verse	*>Label>Verse	*>Label>Verse	*>Label>Verse	*>Label>Verse
1I	G:maj	.	.	.	46.24	newline	voice	1G 1b 1dd
.	.	.	.	.	.	.	.	.
.	.	As	.	.	.	.	.	.
.	.	I	.	.	.	.	.	.
.	.	was	.	.	.	.	.	.
.	.	wal	.	.	.	.	.	.
=29	=29	=29	=29	=29	=29	=29	=29	=29
1-VII	F:maj	_	.	.	48.26	.	voice	1F 1a 1cc
.	.	king	.	.	.	.	.	.
.	.	down	.	.	.	.	.	.
.	.	_	.	.	.	.	.	.
.	.	the	.	.	.	.	.	.
.	.	street	.	.	.	.	.	.
=30	=30	=30	=30	=30	=30	=30	=30	=30
1-III7	B-:maj7	_	.	.	50.281	.	voice	1B- 1dd 1ff 1aa
.	.	one	.	.	.	.	.	.
.	.	day	.	.	.	.	.	.
.	.	_	.	.	.	.	.	.
.	.	.	.	.	.	.	.	.
=31	=31	=31	=31	=31	=31	=31	=31	=31
1-VI7	E-:maj13	.	.	.	52.301	.	voice	1E- 1g 1b- 1dd
.	.	.	.	.	.	.	.	.
.	.	a	.	.	.	.	.	.
.	.	man	.	.	.	.	.	.
=32	=32	=32	=32	=32	=32	=32	=32	=32
1-III7	B-:maj7	_	.	.	54.321	newline	voice	1B- 1dd 1ff 1aa
.	.	came	.	.	.	.	.	.
.	.	_	.	.	.	.	.	.
.	.	_	.	.	.	.	.	.
.	.	up	.	.	.	.	.	.
.	.	_	.	.	.	.	.	.
.	.	to	.	.	.	.	.	.
.	.	_	.	.	.	.	.	.
.	.	me	.	.	.	.	.	.
=33	=33	=33	=33	=33	=33	=33	=33	=33
1-VI7	E-:maj13	_	.	.	56.333	.	voice	1E- 1g 1b- 1dd
.	.	and	.	.	.	.	.	.
.	.	asked	.	.	.	.	.	.
.	.	_	.	.	.	.	.	.
.	.	me	.	.	.	.	.	.
.	.	what	.	.	.	.	.	.
=34	=34	=34	=34	=34	=34	=34	=34	=34
1-III7	B-:maj7	_	.	.	58.345	.	voice	1B- 1dd 1ff 1aa
.	.	the	.	.	.	.	.	.
.	.	_	.	.	.	.	.	.
.	.	time	.	.	.	.	.	.
.	.	_	.	.	.	.	.	.
.	.	was	.	.	.	.	.	.
.	.	that	.	.	.	.	.	.
=35	=35	=35	=35	=35	=35	=35	=35	=35
1-VI7	E-:maj13	_	.	.	60.357	.	voice	1E- 1g 1b- 1dd
.	.	was	.	.	.	.	.	.
.	.	on	.	.	.	.	.	.
.	.	_	.	.	.	.	.	.
.	.	my	.	.	.	.	.	.
.	.	watch	.	.	.	.	.	.
=36	=36	=36	=36	=36	=36	=36	=36	=36
1-VI7	E-:maj13	_	.	.	62.369	.	voice	1E- 1g 1b- 1dd
.	.	_	.	.	.	.	.	.
.	.	_	.	.	.	.	.	.
.	.	_	.	.	.	.	.	.
.	.	_	.	.	.	.	.	.
.	.	.	.	.	.	.	.	.
=37	=37	=37	=37	=37	=37	=37	=37	=37
1-VI7	E-:maj13	Yeah	.	.	64.381	.	voice	1E- 1g 1b- 1dd
.	.	_	.	.	.	.	.	.
.	.	_	.	.	.	.	.	.
.	.	_	.	.	.	.	.	.
.	.	_	.	.	.	.	.	.
.	.	.	.	.	.	.	.	.
.	.	I	.	.	.	.	.	.
=38	=38	=38	=38	=38	=38	=38	=38	=38
*>Letter>D	*>Letter>D	*>Letter>D	*>Letter>D	*>Letter>D	*>Letter>D	*>Letter>D	*>Letter>D	*>Letter>D
*>Label>Bridge	*>Label>Bridge	*>Label>Bridge	*>Label>Bridge	*>Label>Bridge	*>Label>Bridge	*>Label>Bridge	*>Label>Bridge	*>Label>Bridge
2V	D:maj	said	.	.	66.393	newline	brass	2D 2f# 2a
.	.	_	.	.	.	.	.	.
.	.	_	.	.	.	.	.	.
.	.	_	.	.	.	.	.	.
2vi7	E:min7	.	.	.	67.448	.	brass	2E 2g 2b 2dd
.	.	.	.	.	.	.	.	.
=39	=39	=39	=39	=39	=39	=39	=39	=39
2-VII	F:maj6	.	.	.	68.503	.	brass	1F 1a 1cc
2vi7	E:min7	.	.	.	69.557	.	brass	2E 2g 2b 2dd
=40	=40	=40	=40	=40	=40	=40	=40	=40
*>Letter>C	*>Letter>C	*>Letter>C	*>Letter>C	*>Letter>C	*>Letter>C	*>Letter>C	*>Letter>C	*>Letter>C
*>Label>Chorus	*>Label>Chorus	*>Label>Chorus	*>Label>Chorus	*>Label>Chorus	*>Label>Chorus	*>Label>Chorus	*>Label>Chorus	*>Label>Chorus
.	.	.	_	.	.	.	.	.
1I7	G:maj7	.	I	.	70.612	newline	voice	1G 1b 1dd 1ff#
.	.	.	.	.	.	.	.	.
.	.	.	.	.	.	.	.	.
.	.	Does	.	.	.	.	.	.
.	.	a-	.	.	.	.	.	.
.	.	-ny-	.	.	.	.	.	.
.	.	-bo-	.	.	.	.	.	.
.	.	-dy	_	.	.	.	.	.
.	.	real-	.	.	.	.	.	.
.	.	-ly	don't	.	.	.	.	.
=41	=41	=41	=41	=41	=41	=41	=41	=41
1IV7	C:maj13	know	_	.	72.647	.	voice	1C 1e 1g 1b
.	.	what	.	.	.	.	.	.
.	.	.	.	.	.	.	.	.
.	.	time	.	.	.	.	.	.
.	.	it	.	.	.	.	.	.
.	.	is	.	.	.	.	.	.
.	.	_	.	.	.	.	.	.
.	.	.	.	.	.	.	.	.
=42	=42	=42	=42	=42	=42	=42	=42	=42
.	.	.	_	.	.	.	.	.
1I7	G:maj7	.	care	.	74.682	.	voice	1G 1b 1dd 1ff#
.	.	.	.	.	.	.	.	.
.	.	.	.	.	.	.	.	.
.	.	Does	.	.	.	.	.	.
.	.	a-	.	.	.	.	.	.
.	.	-ny-	.	.	.	.	.	.
.	.	-bo-	.	.	.	.	.	.
.	.	-dy	_	.	.	.	.	.
.	.	real-	.	.	.	.	.	.
.	.	-ly	_	.	.	.	.	.
=43	=43	=43	=43	=43	=43	=43	=43	=43
1IV7	C:maj13	_	_	.	76.717	.	voice	1C 1e 1g 1b
.	.	_	.	.	.	.	.	.
.	.	care	.	.	.	.	.	.
.	.	_	.	.	.	.	.	.
.	.	.	a-	.	.	.	.	.
.	.	.	-bout	.	.	.	.	.
.	.	.	.	.	.	.	.	.
.	.	.	_	.	.	.	.	.
.	.	.	time	.	.	.	.	.
=44	=44	=44	=44	=44	=44	=44	=44	=44
1I7	G:maj7	.	_	.	78.752	newline	voice	1G 1b 1dd 1ff#
.	.	.	.	.	.	.	.	.
.	.	If	.	.	.	.	.	.
.	.	so,	.	.	.	.	.	.
.	.	I	.	.	.	.	.	.
.	.	.	.	.	.	.	.	.
.	.	can't	.	.	.	.	.	.
=45	=45	=45	=45	=45	=45	=45	=45	=45
1IV7	C:maj13	i-	.	.	80.769	.	voice	1C 1e 1g 1b
.	.	-ma-	.	.	.	.	.	.
.	.	-gine	.	.	.	.	.	.
.	.	why	.	A	.	.	.	.
.	.	_	.	.	.	.	.	.
.	.	.	Oh,	.	.	.	.	.
.	.	.	_	.	.	.	.	.
.	.	.	no,	.	.	.	.	.
=46	=46	=46	=46	=46	=46	=46	=46	=46
1I7	G:maj7	.	_	.	82.785	.	voice	1G 1b 1dd 1ff#
.	.	.	_	.	.	.	.	.
.	.	.	_	.	.	.	.	.
.	.	We've	no	.	.	.	.	.
.	.	all	_	.	.	.	.	.
.	.	got	_	.	.	.	.	.
.	.	.	.	.	.	.	.	.
.	.	time	.	.	.	.	.	.
=47	=47	=47	=47	=47	=47	=47	=47	=47
1IV7	C:maj13	e-	.	.	84.801	.	voice	1C 1e 1g 1b
.	.	-nough	.	.	.	.	.	.
.	.	to	.	.	.	.	.	.
.	.	cry	.	A	.	.	.	.
.	.	_	.	.	.	.	.	.
.	.	.	.	.	.	.	.	.
.	.	.	.	.	.	.	.	.
=48	=48	=48	=48	=48	=48	=48	=48	=48
*>Letter>E	*>Letter>E	*>Letter>E	*>Letter>E	*>Letter>E	*>Letter>E	*>Letter>E	*>Letter>E	*>Letter>E
*>Label>Verse	*>Label>Verse	*>Label>Verse	*>Label>Verse	*>Label>Verse	*>Label>Verse	*>Label>Verse	*>Label>Verse	*>Label>Verse
1I	G:maj	.	.	.	86.818	newline	voice	1G 1b 1dd
.	.	.	.	.	.	.	.	.
.	.	And	.	.	.	.	.	.
.	.	I	.	.	.	.	.	.
.	.	was	.	.	.	.	.	.
.	.	wal	.	.	.	.	.	.
=49	=49	=49	=49	=49	=49	=49	=49	=49
1-VII	F:maj	.	.	.	88.797	.	voice	1F 1a 1cc
.	.	king	.	.	.	.	.	.
.	.	down	.	.	.	.	.	.
.	.	_	.	.	.	.	.	.
.	.	the	.	.	.	.	.	.
.	.	street	.	.	.	.	.	.
=50	=50	=50	=50	=50	=50	=50	=50	=50
1-III7	B-:maj7	.	.	.	90.777	.	voice	1B- 1dd 1ff 1aa
.	.	one	.	.	.	.	.	.
.	.	day	.	.	.	.	.	.
.	.	_	.	.	.	.	.	.
.	.	.	.	.	.	.	.	.
=51	=51	=51	=51	=51	=51	=51	=51	=51
1-VI7	E-:maj13	.	.	.	92.757	.	voice	1E- 1g 1b- 1dd
.	.	.	.	.	.	.	.	.
.	.	a	.	.	.	.	.	.
.	.	pret	.	.	.	.	.	.
=52	=52	=52	=52	=52	=52	=52	=52	=52
1-III7	B-:maj7	.	.	.	94.737	newline	voice	1B- 1dd 1ff 1aa
.	.	ty	.	b	.	.	.	.
.	.	_	.	.	.	.	.	.
.	.	_	.	.	.	.	.	.
.	.	la	.	.	.	.	.	.
.	.	_	.	.	.	.	.	.
.	.	dy	.	b	.	.	.	.
.	.	_	.	.	.	.	.	.
.	.	looked	.	.	.	.	.	.
=53	=53	=53	=53	=53	=53	=53	=53	=53
1-VI7	E-:maj13	_	.	.	96.774	.	voice	1E- 1g 1b- 1dd
.	.	at	.	.	.	.	.	.
.	.	me	.	B	.	.	.	.
.	.	_	.	.	.	.	.	.
.	.	and	.	.	.	.	.	.
.	.	said	.	.	.	.	.	.
=54	=54	=54	=54	=54	=54	=54	=54	=54
1-III7	B-:maj7	_	.	.	98.811	.	voice	1B- 1dd 1ff 1aa
.	.	her	.	.	.	.	.	.
.	.	_	.	.	.	.	.	.
.	.	dia	.	.	.	.	.	.
.	.	_	.	.	.	.	.	.
.	.	mond	.	.	.	.	.	.
.	.	watch	.	.	.	.	.	.
=55	=55	=55	=55	=55	=55	=55	=55	=55
1-VI7	E-:maj13	.	.	.	100.848	.	voice	1E- 1g 1b- 1dd
.	.	had	.	.	.	.	.	.
.	.	stopped	.	.	.	.	.	.
.	.	_	.	.	.	.	.	.
.	.	cold	.	.	.	.	.	.
.	.	dead	.	C	.	.	.	.
=56	=56	=56	=56	=56	=56	=56	=56	=56
1-VI7	E-:maj13	_	.	.	102.885	.	voice	1E- 1g 1b- 1dd
.	.	_	.	.	.	.	.	.
.	.	_	.	.	.	.	.	.
.	.	_	.	.	.	.	.	.
.	.	_	.	.	.	.	.	.
.	.	_	.	.	.	.	.	.
.	.	.	.	.	.	.	.	.
=57	=57	=57	=57	=57	=57	=57	=57	=57
1-VI7	E-:maj13	.	.	.	104.922	.	voice	1E- 1g 1b- 1dd
.	.	.	.	.	.	.	.	.
.	.	And	.	.	.	.	.	.
.	.	I	.	.	.	.	.	.
=58	=58	=58	=58	=58	=58	=58	=58	=58
*>Letter>D	*>Letter>D	*>Letter>D	*>Letter>D	*>Letter>D	*>Letter>D	*>Letter>D	*>Letter>D	*>Letter>D
*>Label>Bridge	*>Label>Bridge	*>Label>Bridge	*>Label>Bridge	*>Label>Bridge	*>Label>Bridge	*>Label>Bridge	*>Label>Bridge	*>Label>Bridge
2V	D:maj	said	.	C	106.959	newline	brass	1D 1f# 1a
.	.	_	.	.	.	.	.	.
.	.	_	.	.	.	.	.	.
.	.	_	.	.	.	.	.	.
2vi7	E:min7	.	.	.	108.01	.	brass	2E 2g 2b 2dd
=59	=59	=59	=59	=59	=59	=59	=59	=59
2-VII	F:maj6	_	.	.	109.062	.	brass	2F 2a 2cc
.	.	.	.	.	.	.	.	.
.	.	.	.	.	.	.	.	.
2vi7	E:min7	.	.	.	110.113	.	brass	2E 2g 2b 2dd
=60	=60	=60	=60	=60	=60	=60	=60	=60
*>Letter>C	*>Letter>C	*>Letter>C	*>Letter>C	*>Letter>C	*>Letter>C	*>Letter>C	*>Letter>C	*>Letter>C
*>Label>Chorus	*>Label>Chorus	*>Label>Chorus	*>Label>Chorus	*>Label>Chorus	*>Label>Chorus	*>Label>Chorus	*>Label>Chorus	*>Label>Chorus
.	.	.	_	.	.	.	.	.
1I7	G:maj7	.	I	.	111.165	newline	voice	1G 1b 1dd 1ff#
.	.	.	.	.	.	.	.	.
.	.	.	.	.	.	.	.	.
.	.	Does	.	.	.	.	.	.
.	.	a-	.	.	.	.	.	.
.	.	-ny-	.	.	.	.	.	.
.	.	-bo-	.	.	.	.	.	.
.	.	-dy	_	.	.	.	.	.
.	.	real-	.	.	.	.	.	.
.	.	-ly	don't	.	.	.	.	.
=61	=61	=61	=61	=61	=61	=61	=61	=61
1IV7	C:maj13	know	_	.	113.204	.	voice	1C 1e 1g 1b
.	.	what	.	.	.	.	.	.
.	.	.	.	.	.	.	.	.
.	.	time	.	.	.	.	.	.
.	.	it	.	.	.	.	.	.
.	.	_	.	.	.	.	.	.
.	.	is	.	.	.	.	.	.
.	.	_	.	.	.	.	.	.
.	.	.	.	.	.	.	.	.
=62	=62	=62	=62	=62	=62	=62	=62	=62
.	.	.	_	.	.	.	.	.
1I7	G:maj7	.	care	.	115.244	.	voice	1G 1b 1dd 1ff#
.	.	.	.	.	.	.	.	.
.	.	.	.	.	.	.	.	.
.	.	Does	.	.	.	.	.	.
.	.	a-	.	.	.	.	.	.
.	.	-ny-	.	.	.	.	.	.
.	.	-bo-	.	.	.	.	.	.
.	.	-dy	_	.	.	.	.	.
.	.	real	.	.	.	.	.	.
.	.	_	_	.	.	.	.	.
.	.	ly	.	.	.	.	.	.
=63	=63	=63	=63	=63	=63	=63	=63	=63
1IV7	C:maj13	_	_	.	117.284	.	voice	1C 1e 1g 1b
.	.	_	.	.	.	.	.	.
.	.	care	.	.	.	.	.	.
.	.	_	.	.	.	.	.	.
.	.	.	a-	.	.	.	.	.
.	.	.	-bout	.	.	.	.	.
.	.	.	.	.	.	.	.	.
.	.	.	_	.	.	.	.	.
.	.	.	time	A	.	.	.	.
=64	=64	=64	=64	=64	=64	=64	=64	=64
1I7	G:maj7	.	_	.	119.324	newline	voice	1G 1b 1dd 1ff#
.	.	.	.	.	.	.	.	.
.	.	If	.	.	.	.	.	.
.	.	so,	.	.	.	.	.	.
.	.	I	.	.	.	.	.	.
.	.	.	.	.	.	.	.	.
.	.	can't	.	.	.	.	.	.
=65	=65	=65	=65	=65	=65	=65	=65	=65
1IV7	C:maj13	i-	.	.	121.332	.	voice	1C 1e 1g 1b
.	.	-ma-	.	.	.	.	.	.
.	.	-gine	.	.	.	.	.	.
.	.	why	.	A	.	.	.	.
.	.	_	.	.	.	.	.	.
.	.	.	Oh	.	.	.	.	.
.	.	.	_	.	.	.	.	.
.	.	.	no,	.	.	.	.	.
=66	=66	=66	=66	=66	=66	=66	=66	=66
1I7	G:maj7	.	_	.	123.34	.	voice	1G 1b 1dd 1ff#
.	.	.	_	.	.	.	.	.
.	.	.	_	.	.	.	.	.
.	.	We've	no	.	.	.	.	.
.	.	all	_	.	.	.	.	.
.	.	got	_	.	.	.	.	.
.	.	.	.	.	.	.	.	.
.	.	time	.	.	.	.	.	.
=67	=67	=67	=67	=67	=67	=67	=67	=67
1IV7	C:maj13	e-	.	.	125.348	.	voice	1C 1e 1g 1b
.	.	-nough	.	.	.	.	.	.
.	.	to	.	.	.	.	.	.
.	.	_	.	.	.	.	.	.
.	.	cry	.	A	.	.	.	.
.	.	.	.	.	.	.	.	.
=68	=68	=68	=68	=68	=68	=68	=68	=68
*>Letter>E	*>Letter>E	*>Letter>E	*>Letter>E	*>Letter>E	*>Letter>E	*>Letter>E	*>Letter>E	*>Letter>E
*>Label>Verse	*>Label>Verse	*>Label>Verse	*>Label>Verse	*>Label>Verse	*>Label>Verse	*>Label>Verse	*>Label>Verse	*>Label>Verse
1I	G:maj	.	.	.	127.356	newline	voice	1G 1b 1dd
.	.	.	.	.	.	.	.	.
.	.	And	.	.	.	.	.	.
.	.	I	.	.	.	.	.	.
.	.	was	.	.	.	.	.	.
.	.	wal	.	.	.	.	.	.
=69	=69	=69	=69	=69	=69	=69	=69	=69
1-VII	F:maj	.	.	.	129.368	.	voice	1F 1a 1cc
.	.	king	.	.	.	.	.	.
.	.	down	.	.	.	.	.	.
.	.	_	.	.	.	.	.	.
.	.	_	.	.	.	.	.	.
.	.	the	.	.	.	.	.	.
.	.	street	.	B	.	.	.	.
=70	=70	=70	=70	=70	=70	=70	=70	=70
1-III7	B-:maj7	.	.	.	131.38	.	voice	1B- 1dd 1ff 1aa
.	.	one	.	.	.	.	.	.
.	.	day	.	.	.	.	.	.
.	.	_	.	.	.	.	.	.
.	.	.	Peo-	.	.	.	.	.
.	.	.	-ple	.	.	.	.	.
.	.	.	run-	.	.	.	.	.
.	.	.	-ning	.	.	.	.	.
.	.	.	ev-	.	.	.	.	.
.	.	.	-'ry-	.	.	.	.	.
=71	=71	=71	=71	=71	=71	=71	=71	=71
1-VI7	E-:maj13	.	-where	.	133.393	.	voice	1E- 1g 1b- 1dd
.	.	.	.	.	.	.	.	.
.	.	Be-	.	B	.	.	.	.
.	.	-ing	.	.	.	.	.	.
.	.	pushed	.	.	.	.	.	.
=72	=72	=72	=72	=72	=72	=72	=72	=72
1-III7	B-:maj7	_	.	.	135.405	newline	voice	1B- 1dd 1ff 1aa
.	.	.	Don't	.	.	.	.	.
.	.	and	.	.	.	.	.	.
.	.	.	know	.	.	.	.	.
.	.	_	.	.	.	.	.	.
.	.	_	.	.	.	.	.	.
.	.	shoved	.	.	.	.	.	.
.	.	.	where	.	.	.	.	.
.	.	_	_	.	.	.	.	.
.	.	by	to	.	.	.	.	.
.	.	.	go	.	.	.	.	.
.	.	.	.	.	.	.	.	.
.	.	_	.	.	.	.	.	.
.	.	peo	.	B	.	.	.	.
=73	=73	=73	=73	=73	=73	=73	=73	=73
1-VI7	E-:maj13	.	.	.	137.447	.	voice	1E- 1g 1b- 1dd
.	.	ple	.	.	.	.	.	.
.	.	.	.	.	.	.	.	.
.	.	.	I	.	.	.	.	.
.	.	_	.	.	.	.	.	.
.	.	_	.	.	.	.	.	.
.	.	trying	don't	.	.	.	.	.
.	.	_	know	.	.	.	.	.
.	.	to	where	.	.	.	.	.
.	.	.	I	.	.	.	.	.
.	.	.	am.	.	.	.	.	.
.	.	beat	.	B	.	.	.	.
=74	=74	=74	=74	=74	=74	=74	=74	=74
1-III7	B-:maj7	.	.	.	139.49	.	voice	1B- 1dd 1ff 1aa
.	.	the	.	.	.	.	.	.
.	.	.	.	.	.	.	.	.
.	.	_	.	.	.	.	.	.
.	.	clock,	I	.	.	.	.	.
.	.	_	can't	.	.	.	.	.
.	.	oh	.	D	.	.	.	.
.	.	.	see	.	.	.	.	.
.	.	.	_	.	.	.	.	.
.	.	no,	past	D	.	.	.	.
=75	=75	=75	=75	=75	=75	=75	=75	=75
1-VI7	E-:maj13	_	_	.	141.533	.	voice	1E- 1g 1b- 1dd
.	.	.	the	.	.	.	.	.
.	.	I	next	.	.	.	.	.
.	.	.	step	.	.	.	.	.
.	.	just	.	.	.	.	.	.
.	.	_	.	.	.	.	.	.
.	.	don't	.	.	.	.	.	.
.	.	_	.	.	.	.	.	.
.	.	know,	.	D	.	.	.	.
=76	=76	=76	=76	=76	=76	=76	=76	=76
1-VI7	E-:maj13	_	.	.	143.575	.	voice	1E- 1g 1b- 1dd
.	.	I	.	.	.	.	.	.
.	.	don't	Don't	.	.	.	.	.
.	.	know,	have	.	.	.	.	.
.	.	_	time	.	.	.	.	.
.	.	I	to	.	.	.	.	.
.	.	.	fi-	.	.	.	.	.
.	.	don't	-gure	.	.	.	.	.
.	.	.	out	.	.	.	.	.
.	.	_	.	.	.	.	.	.
.	.	know	.	D	.	.	.	.
.	.	.	the	.	.	.	.	.
=77	=77	=77	=77	=77	=77	=77	=77	=77
1-VI7	E-:maj13	_	next	.	145.618	.	voice	1E- 1g 1b- 1dd
.	.	_	.	.	.	.	.	.
.	.	oh	.	D	.	.	.	.
.	.	.	step	.	.	.	.	.
.	.	.	_	.	.	.	.	.
.	.	.	.	.	.	.	.	.
.	.	.	Don't	.	.	.	.	.
.	.	And	have	.	.	.	.	.
.	.	I	time	.	.	.	.	.
.	.	.	to	.	.	.	.	.
.	.	.	look	.	.	.	.	.
=78	=78	=78	=78	=78	=78	=78	=78	=78
*>Letter>D	*>Letter>D	*>Letter>D	*>Letter>D	*>Letter>D	*>Letter>D	*>Letter>D	*>Letter>D	*>Letter>D
*>Label>Bridge	*>Label>Bridge	*>Label>Bridge	*>Label>Bridge	*>Label>Bridge	*>Label>Bridge	*>Label>Bridge	*>Label>Bridge	*>Label>Bridge
2V	D:maj	said	_	.	147.661	newline	brass	2D 2f# 2a
.	.	.	a-	.	.	.	.	.
.	.	_	-round	.	.	.	.	.
.	.	_	.	.	.	.	.	.
.	.	_	.	.	.	.	.	.
2vi7	E:min7	_	.	.	148.691	.	brass	2E 2g 2b 2dd
.	.	.	Just	.	.	.	.	.
.	.	.	run-	.	.	.	.	.
.	.	.	-a-	.	.	.	.	.
.	.	yes,	-round	.	.	.	.	.
=79	=79	=79	=79	=79	=79	=79	=79	=79
2-VII	F:maj6	_	(unintelligible)	.	149.721	.	brass	2F 2a 2cc
.	.	.	_	.	.	.	.	.
.	.	I	.	.	.	.	.	.
.	.	.	.	.	.	.	.	.
.	.	_	.	.	.	.	.	.
.	.	said	_	.	.	.	.	.
2vi7	E:min7	_	_	.	150.751	.	brass	2E 2g 2b 2dd
.	.	.	_	.	.	.	.	.
.	.	_	.	.	.	.	.	.
.	.	.	.	.	.	.	.	.
=80	=80	=80	=80	=80	=80	=80	=80	=80
*>Letter>C	*>Letter>C	*>Letter>C	*>Letter>C	*>Letter>C	*>Letter>C	*>Letter>C	*>Letter>C	*>Letter>C
*>Label>Chorus	*>Label>Chorus	*>Label>Chorus	*>Label>Chorus	*>Label>Chorus	*>Label>Chorus	*>Label>Chorus	*>Label>Chorus	*>Label>Chorus
.	.	.	_	.	.	.	.	.
1I7	G:maj7	.	I	.	151.781	newline	voice	1G 1b 1dd 1ff#
.	.	.	.	.	.	.	.	.
.	.	.	.	.	.	.	.	.
.	.	Does	.	.	.	.	.	.
.	.	a-	.	.	.	.	.	.
.	.	-ny-	.	.	.	.	.	.
.	.	-no-	.	.	.	.	.	.
.	.	-dy	_	.	.	.	.	.
.	.	real-	.	.	.	.	.	.
.	.	-ly	don't	.	.	.	.	.
=81	=81	=81	=81	=81	=81	=81	=81	=81
1IV7	C:maj13	know	_	.	153.823	.	voice	1C 1e 1g 1b
.	.	what	.	.	.	.	.	.
.	.	.	.	.	.	.	.	.
.	.	time	.	.	.	.	.	.
.	.	it	.	.	.	.	.	.
.	.	_	.	.	.	.	.	.
.	.	is	.	.	.	.	.	.
.	.	_	.	.	.	.	.	.
.	.	.	.	.	.	.	.	.
=82	=82	=82	=82	=82	=82	=82	=82	=82
.	.	.	_	.	.	.	.	.
1I7	G:maj7	.	care	.	155.865	.	voice	1G 1b 1dd 1ff#
.	.	.	.	.	.	.	.	.
.	.	.	.	.	.	.	.	.
.	.	Does	.	.	.	.	.	.
.	.	a-	.	.	.	.	.	.
.	.	-ny-	.	.	.	.	.	.
.	.	-bo-	.	.	.	.	.	.
.	.	-dy	_	.	.	.	.	.
.	.	real	.	.	.	.	.	.
.	.	_	_	.	.	.	.	.
.	.	ly	.	.	.	.	.	.
=83	=83	=83	=83	=83	=83	=83	=83	=83
1IV7	C:maj13	_	_	.	157.907	.	voice	1C 1e 1g 1b
.	.	_	.	.	.	.	.	.
.	.	care	.	.	.	.	.	.
.	.	_	.	.	.	.	.	.
.	.	.	a-	.	.	.	.	.
.	.	.	-bout	.	.	.	.	.
.	.	.	.	.	.	.	.	.
.	.	.	_	.	.	.	.	.
.	.	.	time	.	.	.	.	.
=84	=84	=84	=84	=84	=84	=84	=84	=84
1I7	G:maj7	.	_	.	159.949	newline	voice	1G 1b 1dd 1ff#
.	.	.	.	.	.	.	.	.
.	.	If	.	.	.	.	.	.
.	.	so,	.	.	.	.	.	.
.	.	I	.	.	.	.	.	.
.	.	.	.	.	.	.	.	.
.	.	can't	.	.	.	.	.	.
=85	=85	=85	=85	=85	=85	=85	=85	=85
1IV7	C:maj13	i-	.	.	161.966	.	voice	1C 1e 1g 1b
.	.	-ma-	.	.	.	.	.	.
.	.	-gine	.	.	.	.	.	.
.	.	why	.	A	.	.	.	.
.	.	_	.	.	.	.	.	.
.	.	.	Oh,	.	.	.	.	.
.	.	.	_	.	.	.	.	.
.	.	.	no,	.	.	.	.	.
=86	=86	=86	=86	=86	=86	=86	=86	=86
1I7	G:maj7	.	_	.	163.984	.	voice	1G 1b 1dd 1ff#
.	.	.	_	.	.	.	.	.
.	.	.	_	.	.	.	.	.
.	.	We've	no	.	.	.	.	.
.	.	all	_	.	.	.	.	.
.	.	got	_	.	.	.	.	.
.	.	.	.	.	.	.	.	.
.	.	time	.	.	.	.	.	.
=87	=87	=87	=87	=87	=87	=87	=87	=87
1IV7	C:maj13	e-	.	.	166.002	.	voice	1C 1e 1g 1b
.	.	-nough	.	.	.	.	.	.
.	.	to	.	.	.	.	.	.
.	.	.	.	.	.	.	.	.
.	.	cry	.	A	.	.	.	.
.	.	_	.	.	.	.	.	.
.	.	.	.	.	.	.	.	.
=88	=88	=88	=88	=88	=88	=88	=88	=88
*>Letter>D	*>Letter>D	*>Letter>D	*>Letter>D	*>Letter>D	*>Letter>D	*>Letter>D	*>Letter>D	*>Letter>D
*>Label>Bridge	*>Label>Bridge	*>Label>Bridge	*>Label>Bridge	*>Label>Bridge	*>Label>Bridge	*>Label>Bridge	*>Label>Bridge	*>Label>Bridge
2V	D:maj	.	.	.	168.02	newline	brass	1D 1f# 1a
2vi7	E:min7	.	.	.	169.028	.	brass	2E 2g 2b 2dd
=89	=89	=89	=89	=89	=89	=89	=89	=89
2-VII	F:maj6	.	.	.	170.036	.	brass	2F 2a 2cc
2vi7	E:min7	Ev-	.	.	171.045	.	brass	2E 2g 2b 2dd
.	.	-'ry-	.	.	.	.	.	.
.	.	-bo-	.	.	.	.	.	.
.	.	-dy's	.	.	.	.	.	.
.	.	worr	.	.	.	.	.	.
=90	=90	=90	=90	=90	=90	=90	=90	=90
*>Letter>C2	*>Letter>C2	*>Letter>C2	*>Letter>C2	*>Letter>C2	*>Letter>C2	*>Letter>C2	*>Letter>C2	*>Letter>C2
*>Label>Chorus	*>Label>Chorus	*>Label>Chorus	*>Label>Chorus	*>Label>Chorus	*>Label>Chorus	*>Label>Chorus	*>Label>Chorus	*>Label>Chorus
.	.	.	_	.	.	.	.	.
1I7	G:maj7	_	I	.	172.053	newline	voice	1G 1b 1dd 1ff#
.	.	_	.	.	.	.	.	.
.	.	'yin	.	.	.	.	.	.
.	.	.	.	.	.	.	.	.
.	.	.	.	.	.	.	.	.
.	.	.	_	.	.	.	.	.
.	.	.	don't	.	.	.	.	.
=91	=91	=91	=91	=91	=91	=91	=91	=91
1IV7	C:maj13	.	_	.	174.052	.	voice	1C 1e 1g 1b
.	.	.	.	.	.	.	.	.
.	.	.	.	.	.	.	.	.
=92	=92	=92	=92	=92	=92	=92	=92	=92
.	.	.	_	.	.	.	.	.
1I7	G:maj7	.	care	.	176.05	.	voice	1G 1b 1dd 1ff#
.	.	I	.	.	.	.	.	.
.	.	don't	.	.	.	.	.	.
.	.	.	_	.	.	.	.	.
.	.	care	.	.	.	.	.	.
.	.	.	_	.	.	.	.	.
=93	=93	=93	=93	=93	=93	=93	=93	=93
1IV7	C:maj13	_	_	.	178.049	.	voice	1C 1e 1g 1b
.	.	_	.	.	.	.	.	.
.	.	_	.	.	.	.	.	.
.	.	_	.	.	.	.	.	.
.	.	_	.	.	.	.	.	.
.	.	.	.	.	.	.	.	.
.	.	.	a-	.	.	.	.	.
.	.	.	-bout	.	.	.	.	.
.	.	.	.	.	.	.	.	.
.	.	.	_	.	.	.	.	.
.	.	.	time	.	.	.	.	.
=94	=94	=94	=94	=94	=94	=94	=94	=94
1I7	G:maj7	.	_	.	180.048	newline	voice	1G 1b 1dd 1ff#
.	.	A-	.	.	.	.	.	.
.	.	-bout	.	.	.	.	.	.
.	.	.	.	.	.	.	.	.
.	.	_	.	.	.	.	.	.
.	.	time	.	.	.	.	.	.
=95	=95	=95	=95	=95	=95	=95	=95	=95
1IV7	C:maj13	_	.	.	182.095	.	voice	1C 1e 1g 1b
.	.	.	.	.	.	.	.	.
.	.	.	.	.	.	.	.	.
.	.	.	Oh,	.	.	.	.	.
.	.	.	_	.	.	.	.	.
.	.	.	no,	.	.	.	.	.
=96	=96	=96	=96	=96	=96	=96	=96	=96
1I7	G:maj7	.	_	.	184.143	.	voice	1G 1b 1dd 1ff#
.	.	.	_	.	.	.	.	.
.	.	.	_	.	.	.	.	.
.	.	.	no	.	.	.	.	.
.	.	I	_	.	.	.	.	.
.	.	don't	_	.	.	.	.	.
.	.	.	.	.	.	.	.	.
.	.	care	.	.	.	.	.	.
=97	=97	=97	=97	=97	=97	=97	=97	=97
1IV7	C:maj13	_	.	.	186.19	.	voice	1C 1e 1g 1b
.	.	_	.	.	.	.	.	.
.	.	_	.	.	.	.	.	.
.	.	_	.	.	.	.	.	.
.	.	_	.	.	.	.	.	.
.	.	.	.	.	.	.	.	.
.	.	.	.	.	.	.	.	.
=98	=98	=98	=98	=98	=98	=98	=98	=98
*>Letter>F	*>Letter>F	*>Letter>F	*>Letter>F	*>Letter>F	*>Letter>F	*>Letter>F	*>Letter>F	*>Letter>F
*>Label>Outro	*>Label>Outro	*>Label>Outro	*>Label>Outro	*>Label>Outro	*>Label>Outro	*>Label>Outro	*>Label>Outro	*>Label>Outro
2-VII	F:maj	.	.	.	188.237	newline	brass	1F 1a 1cc
2-III7	B-:maj7	.	.	.	189.264	.	brass	2B- 2dd 2ff 2aa
=99	=99	=99	=99	=99	=99	=99	=99	=99
2-VI7	E-:maj7	.	.	.	190.29	.	brass	1E- 1g 1b- 1dd
2-VII	F:maj	.	.	.	191.317	.	brass	2F 2a 2cc
=100	=100	=100	=100	=100	=100	=100	=100	=100
1I7	G:maj7	.	.	.	192.343	.	brass	1G 1b 1dd 1ff#
1r;	N	.	.	.	197.989	.	r	1r;
1r;	N	.	.	.	200.021	.	r	1r;
*-	*-	*-	*-	*-	*-	*-	*-	*-
!!!BillboardChartDate: 1970/11/07
!!!BillboardPeak: 7
!!!BillboardWeeksOnChart: 13
!!!COC: Chicago
!!!ENC: Nathaniel Condit-Schultz
!!!EST: Awating manual error checking and editing.
!!!OTL: Does Anybody Really Know What Time It Is?
!!!RDF**harte: Chris Harte's syntax, used by MIREX
!!!RDF**harmony: **recip + pitch class of root + harmonic quality
!!!RDF**leadinstrument: original McGill primary instrumentation annotation
!!!RDF**phrase: newline = linebreak in original McGill transcription
!!!RDF**timestamp: McGill audio timestamp in seconds
!!!RDT: 2017/01/12/
!!!SampleActualRank: 72
!!!SampleID#: 0700
!!!SampleTargetRank: 74
!!!MBID: 680052ce-a0e0-42f3-b372-d2d6da012eee
